!!!COM: Haydn, Franz Joseph
!!!OTL: String Quartet in G Major
!!!OPS: Opus 76
!!!ONM: No. 1
!!!OMD: Adagio sostenuto
!!!OMV: 2
!!!SCT: H III:75
!!!SCA: Thematisch-bibliographisches Werkevererzeichnis (A. van Hoboken)
!!!YOR: Trautwein Edition
!!!ENC: Frances Bennion
!!!CDT: 1732/3/31/-1809/5/31/
!!!CNT: Oesterreich
!!!YEC: Copyright (c) 1994, 2000 Center for Computer Assisted Research in the Humanities
!!!YEM: Rights to all derivative editions reserved.
!!!YEM: Refer to licensing agreement for further details.
!!!YEN: United States of America
**kern	**kern	**kern	**kern
*k[]	*k[]	*k[]	*k[]
*C:	*C:	*C:	*C:
*clefF4	*clefC3	*clefF	*clefF
*M2/4	*M2/4	*M2/4	*M2/4
4C	4G	4c	4e
4GG	4F	4B	4d
=2	=2	=2	=2
8.AA	4E	4.A	8.c
16GG	.	.	16c#
8FF	8F	.	8d
8EE	8G	8c#	8e
=3	=3	=3	=3
8DD	8A	8d	8f
8CC 8C	16.E	8e	8a
.	32F	.	.
8BB	8G	8d	8g
8BB	8G	8d	8f
=4	=4	=4	=4
8C	2G	4c	4e
8E	.	.	.
4G	.	4B	8.d
.	.	.	16d#
=5	=5	=5	=5
4CC	4G	4c	4e
4GG#	4F	4B	4d
=6	=6	=6	=6
4AA	4E	4A	4c
4GG	8F	4B-	8d
.	8G	.	8e
=7	=7	=7	=7
4FF	4A	8c	8f
.	.	8f	24a
.	.	.	24f
.	.	.	24d
4GG	8G	8e	8c
.	8B	8G 8d	24B
.	.	.	24d
.	.	.	24g
=8	=8	=8	=8
[4CC	4B	4G 4d	4f
16CC]	8c	8e	8e
16C	.	.	.
16E	8r	8r	8r
16G	.	.	.
=9	=9	=9	=9
4c	4g	4cc	4ee
4G#	4f	4b	4dd
=10	=10	=10	=10
8.A	4e	8.cc	8.cc
16G	.	16b-	16cc#
8F	8f	8a	8dd
8E	8g	8cc#	8ee
=11	=11	=11	=11
8d 8D	8a	8dd	8ff
8c	16.e	8ee	8aa
.	32f	.	.
8B	8g	8dd	8gg
8B	8g	8dd	8ff
=12	=12	=12	=12
4c	2g	4cc	4ee
4G	.	4b	8.dd
.	.	.	16ee
=13	=13	=13	=13
4D	4a	4dd	4ff
4A	4g	4cc#	4ee
=14	=14	=14	=14
4B-	8f	8dd	8dd
.	8g	4cc	8ee
8A	8a	.	8ff
8A-	8cc	8ee-	8ff#
=15	=15	=15	=15
4G	4cc	4ee	[6..gg
4GG	4b	4dd	.
.	.	.	48gg]
.	.	.	16ff
.	.	.	16ee
.	.	.	16dd
=16	=16	=16	=16
8C	16cc	16ee	4cc
.	16c	16e	.
16r	16c	16e	.
16C	16c	16e	.
16GG#	16c	16e	4r
16AA	16c	16e	.
16EE	16c	16e	.
16FF#	16c	16e	.
=17	=17	=17	=17
4GG	16c	16d	32r
.	.	.	32g
.	16c	16d	32a
.	.	.	32b
.	16c	16d	32cc
.	.	.	32dd
.	16c	16d	32ee
.	.	.	32ff#
4r	16B	16d	32gg
.	.	.	32ff#
.	16B	16d	32gg
.	.	.	32aa
.	16c#	16e	32gg
.	.	.	32bb-
.	16c#	16e	32aa
.	.	.	32gg
=18	=18	=18	=18
8.r	16d	16f	8ff
.	16d	16f	.
.	16d	16f	4.r
16D	16d	16f	.
16AA	16d	16f	.
16BB-	16d	16f	.
16FF	16d	16f	.
16GG	16d	16f	.
=19	=19	=19	=19
8AA	16d	16e	32r
.	.	.	32a
.	16d	16e	32b
.	.	.	32cc#
4.r	16d	16e	32dd
.	.	.	32ee
.	16d	16e	32ff
.	.	.	32gg#
.	16c#	16e	32aa
.	.	.	32gg#
.	16c#	16e	32aa
.	.	.	32gg#
.	16c#	16e	32aa
.	.	.	32bb-
.	16c#	16e	32aa
.	.	.	32gg
=20	=20	=20	=20
2r	16d	16f	8ff
.	16d	16f	.
.	16d	16f	16r
.	16d	16f	16ddd
.	16d	16f	16aa
.	16d	16f	16bb-
.	16d	16f	16ff
.	16d	16f	16gg
=21	=21	=21	=21
32r	16d	16e	8aa
32AA	.	.	.
32BB	16d	16e	.
32C#	.	.	.
32D	16d	16e	4.r
32E	.	.	.
32F	16d	16e	.
32G#	.	.	.
32A	16c#	16e	.
32G	.	.	.
32A	16c#	16e	.
32G	.	.	.
32A	16c#	16e	.
32B-	.	.	.
32A	16c#	16e	.
32G	.	.	.
=22	=22	=22	=22
16F	16d	16f	32r
.	.	.	32aa
16F	16d	16d	32gg#
.	.	.	32aa
16F	16d	16a	32ee
.	.	.	32ff
16F	16d	16a	32cc#
.	.	.	32dd
16F	16f 16A	16a	32g#
.	.	.	32a
16F	16f 16A	16a	32cc#
.	.	.	32dd
16F	16f 16A	16a	32ee
.	.	.	32ff
16F	16f 16A	16a	32gg#
.	.	.	32aa
=23	=23	=23	=23
16G	16f 16G	16d	8cc
16G	16f	16d	.
16G	16f	16d	32b
.	.	.	32f#
16G	16f	16d	32g
.	.	.	32b
16G	16f	16b	32dd
.	.	.	32ff
16G	16d	16b	32gg
.	.	.	32bb
16G	16f	16b	32ddd
.	.	.	32bb
16G	16B	16dd	32gg
.	.	.	32ff
=24	=24	=24	=24
16c	16c	16g	16ff
16c	16e	16g	16ee
16c	16e	16g#	32r
.	.	.	32eee
16c	16e	16g#	32ddd#
.	.	.	32eee
16c	16e	16a	32bb
.	.	.	32ccc
16c	16e	16a	32gg#
.	.	.	32aa
16c	16e	16a	32bb
.	.	.	32ccc
16c	16e	16a	32ddd
.	.	.	32eee
=25	=25	=25	=25
16c	16d	16a 16d	32gg
.	.	.	32ff#
16c	16f#	16a 16d	32r
.	.	.	32eee
16c	16f#	16a 16d	32r
.	.	.	32ddd
16c	16f#	16a 16d	32r
.	.	.	32ccc
16c	16f#	16a 16d	32r
.	.	.	32bb
16c	16f#	16a 16d	32r
.	.	.	32aa
16c	16f#	16d 16a	32r
.	.	.	32gg
16c	16a	16a 16d	32r
.	.	.	32ff#
=26	=26	=26	=26
16B	16d	16g	32r
.	.	.	32aa
16B	16d	16g	32r
.	.	.	32gg
16B	16d	16g	32r
.	.	.	32eee
16B	16d	16g	32r
.	.	.	32ddd
16B	16d	16g	32r
.	.	.	32ccc
16B	16d	16g	32r
.	.	.	32bb
16B	16d	16g	32r
.	.	.	32aa
16B	16d	16g	32r
.	.	.	32gg
=27	=27	=27	=27
16F#	16d	16d	32r
.	.	.	32gg#
16F#	16d	16d	32r
.	.	.	32gg#
16F#	16d	16d	32r
.	.	.	32gg#
16F#	16d	16d	32r
.	.	.	32gg#
16F#	16c	16d	32r
.	.	.	32aa
16F#	16c	16d	32r
.	.	.	32aa
16F#	16c	16d	32r
.	.	.	32aa
16F#	16c	16d	32r
.	.	.	32aa
=28	=28	=28	=28
16G	16B-	16d	32r
.	.	.	32bb-
16G	16B-	16d	32r
.	.	.	32bb-
16G	16B-	16d	32r
.	.	.	32bb-
16G	16B-	16d	32r
.	.	.	32bb-
16F	16A-	16d	32r
.	.	.	16bb-
16F	16A-	16d	.
.	.	.	32bb-
16F	16A-	16d	32r
.	.	.	16bb-
16F	16A-	16d	.
.	.	.	32bb-
=29	=29	=29	=29
16E-	16G	16e-	32r
.	.	.	16bb- 16b-
16E-	16G	16e-	.
.	.	.	16bb- 16b-
16E-	16G	16e-	.
.	.	.	16bb- 16b-
16E-	16G	16e-	.
.	.	.	32bb- 32b-
16EE-	16c#	16g	32r
.	.	.	16bb- 16b-
16EE-	16c#	16g	.
.	.	.	16b- 16bb-
16EE-	16c#	16g	.
.	.	.	16bb- 16b-
16EE-	16c#	16g	.
.	.	.	32bb- 32b-
=30	=30	=30	=30
16DD	16d	16g 16b	32r
.	.	.	16b 16bb
16DD	16d 16G	16b 16g	.
.	.	.	16b 16bb
16DD	16G 16d	16b 16g	.
.	.	.	16bb 16b
16DD	16d 16G	16b 16g	.
.	.	.	32bb 32b
8DD	8G 8d	8g 8b	32r
.	.	.	32gg
.	.	.	32dd
.	.	.	32bb
8r	8r	8r	32gg
.	.	.	32bb
.	.	.	32gg
.	.	.	32ddd
=31	=31	=31	=31
2r	2r	2r	32bb
.	.	.	32ddd
.	.	.	32bb
.	.	.	32ggg
.	.	.	32ddd
.	.	.	32ggg
.	.	.	32ddd
.	.	.	32bbb
.	.	.	32ggg
.	.	.	32bbb
.	.	.	32ggg
.	.	.	32ddd
.	.	.	32bb
.	.	.	32ddd
.	.	.	32ggg
.	.	.	32ddd
=32	=32	=32	=32
8d	8d	8g	8bbb
8r	8r	8r	8r
8D	8d	8a	8f#
8r	8r	8r	8r
=33	=33	=33	=33
4GG	4d	4g	4b
4D	4c	4f#	4a
=34	=34	=34	=34
4E	4B	[2e	4g
4C	8.E	.	4g#
.	16F#	.	.
=35	=35	=35	=35
4C#	4G	4e]	4.a
4D	4F#	4d	.
.	.	.	8a#
=36	=36	=36	=36
2GG	2G	2d	[6..b
.	.	.	48b]
.	.	.	16d
.	.	.	16g
.	.	.	16b
=37	=37	=37	=37
4g	4b	[2b	4dd
4f#	4a	.	4dd#
=38	=38	=38	=38
8e	8g	8b]	8ee
4B	4g	4dd	4ff
8c	8g	8cc	8ee
=39	=39	=39	=39
2d	4g	4b	[6..dd
.	4f#	4a	.
.	.	.	48dd]
.	.	.	16cc
.	.	.	16b
.	.	.	16a
=40	=40	=40	=40
8G	16g	16g	8g
.	16B	16g	.
16r	16B	16g	4.r
16G	16B	16g	.
16D#	16B	16g	.
16E	16B	16g	.
16BB	16B	16g	.
16C#	16B	16g	.
=41	=41	=41	=41
4D	16A	16g	32r
.	.	.	32d
.	16A	16f#	32e
.	.	.	32f#
.	16A	16f#	32g
.	.	.	32a
.	16A	16f#	32b
.	.	.	32cc#
8r	16A	16f	32dd
.	.	.	32cc#
.	16A	16f	32dd
.	.	.	32ee
8EE	16B	16g#	32dd
.	.	.	32ff
.	16B	16g#	32ee
.	.	.	32dd
=42	=42	=42	=42
8AA	16c	16a	8cc
.	16c	16a	.
16r	16c	16a	4.r
16A	16c	16a	.
16E	16c	16a	.
16F	16c	16a	.
16C	16c	16a	.
16D	16c	16a	.
=43	=43	=43	=43
4E	16B	16a	32r
.	.	.	32e
.	16B	16g#	32f#
.	.	.	32g#
.	16B	16g#	32a
.	.	.	32b
.	16B	16g#	32cc
.	.	.	32dd#
4r	16B	16g	32ee
.	.	.	32dd#
.	16B	16g	32ee
.	.	.	32dd#
.	16B-	16g	32ee
.	.	.	32ff
.	32g	16g	32ee
.	32f	.	32dd
=44	=44	=44	=44
4AA	32e	32g	4cc#
.	32d#	32f#	.
.	32e	32g	.
.	32d#	32f#	.
.	32e	32g	.
.	32g	32b-	.
.	32f	32a	.
.	32e	32g	.
32D	4d	4f#	32cc
32F#	.	.	32b
32A	.	.	32cc
32G#	.	.	32b
32A	.	.	32cc
32c	.	.	32ee
32B	.	.	32dd
32A	.	.	32cc
=45	=45	=45	=45
[2G	32d	32f	4b
.	32c#	32e	.
.	32d	32f	.
.	32c#	32e	.
.	32d	32f	.
.	32f	32a	.
.	32e	32g	.
.	32d	32f	.
.	4c	32e	32cc
.	.	32d#	32b
.	.	32e	32cc
.	.	32d#	32b
.	.	32e	32cc
.	.	32ee	32gg
.	.	32dd	32ff
.	.	32cc	32ee
=46	=46	=46	=46
2G]	32f	[8b	32dd
.	32e	.	32cc#
.	32f	.	32dd
.	32e	.	32cc#
.	32f	32b]	32dd
.	32B	32ff	32aa
.	32c	32ee	32gg
.	32d	32dd	32ff
.	[8e	32cc	32ee
.	.	32b	32dd#
.	.	32cc	32ee
.	.	32b	32dd#
.	32e]	32cc	32ee
.	32c	32ee	32gg
.	32d	32dd	32ff
.	32e	32cc	32ee
=47	=47	=47	=47
4GG	4f	32b	32dd
.	.	32cc#	32ee
.	.	32dd	32ff
.	.	32cc#	32ee
.	.	32ee	32gg
.	.	32dd	32ff
.	.	32ff	32aa
.	.	32ee	32gg
4r	4r	32dd	32ff
.	.	32cc#	32ee
.	.	32ff	32aa
.	.	32ee	32gg
.	.	32dd	32ff
.	.	32cc#	32ee
.	.	32ff	32aa
.	.	32ee	32gg
=48	=48	=48	=48
2r	2r	32dd	32ff
.	.	32ee	32gg#
.	.	32ff	32aa
.	.	32ee	32gg#
.	.	32ff	32aa
.	.	32ee	32gg#
.	.	32ff	32aa
.	.	32ee	32gg
.	.	32dd	32ff
.	.	32cc	32ee
.	.	32b	32dd
.	.	32a	32cc
.	.	32g	32b
.	.	32f	32a
.	.	32e	32g
.	.	32d	32f
=49	=49	=49	=49
4CC	4G	4c	4e
4GG	4F	4B	4d
=50	=50	=50	=50
8.AA	4E	4.A	8.c
16GG	.	.	16c#
8FF	8F	.	8d
8EE	8G	8c#	8e
=51	=51	=51	=51
8DD	8A	8d	8f
8CC 8C	16.E	8e	8a
.	32F	.	.
8BB	8G	8d	8g
8BB	8G	8d	8f
=52	=52	=52	=52
8C	2G	4c	4e
8E	.	.	.
4G	.	4B	8.d
.	.	.	16e
=53	=53	=53	=53
4DD	4A	4d	4f
4AA	4G	4c#	4e
=54	=54	=54	=54
4BB-	8F	8d	8d
.	8G	4c	8e
8AA	8A	.	8f
8AA-	8c	8e-	8f#
=55	=55	=55	=55
2GG	4c	4e	[6..g
.	4B	4d	.
.	.	.	48g]
.	.	.	16f
.	.	.	16e
.	.	.	16d
=56	=56	=56	=56
4C	16c	16c	8c
.	16c	16e-	.
.	16c	16e-	16r
.	16c	16e-	16cc
4r	16c	16e-	16g
.	16c	16e-	16a-
.	16c	16e-	16e-
.	16c	16e-	16f
=57	=57	=57	=57
8.r	16c	16d	8g
.	16B	16d	.
.	16B	16d	4.r
16G	16B-	16g	.
16D	16B-	16g	.
16E-	16B-	16g	.
16BB-	16B-	16g	.
16C	16B-	16g	.
=58	=58	=58	=58
8D	16A	16g	8.r
.	16A	16f#	.
4.r	16A	16f#	.
.	16d	16f	16dd
.	16d	16f	16a
.	16d	16f	16b-
.	16d	16f	16f
.	16d	16f	16g
=59	=59	=59	=59
8.r	16d	16e	8a
.	16c#	16e	.
.	16c#	16e	4.r
16AA	16c	16a	.
16EE	16c	16a	.
16FF	16c	16a	.
16CC	16c	16a	.
16DD	16c	16a	.
=60	=60	=60	=60
4EE	16c	16a	8.r
.	16B	16g#	.
.	16B	16g#	.
.	16d	16g#	16ff
4E	16A#	16g#	16cc#
.	16B	16g#	16dd
.	16c	16g#	16ee
.	16B	16g#	16dd
=61	=61	=61	=61
16F	16A	16a	32cc
.	.	.	32aa
16f	16a	16cc	32r
.	.	.	32gg
16f	16a	16cc	32r
.	.	.	32ff
16f	16a	16cc	32r
.	.	.	32ee
16f	16a	16cc	32r
.	.	.	32dd#
16f	16a	16cc	32r
.	.	.	32ee
16f	16a	16cc	32r
.	.	.	32ff
16f	16a	16cc	32r
.	.	.	32gg
=62	=62	=62	=62
16f	16a	16cc	32r
.	.	.	32aa
16f	16a	16cc	32r
.	.	.	32gg
16f	16a	16cc	32r
.	.	.	32ff
16f	16a	16cc	32r
.	.	.	32ee
16f	16a	16cc	32r
.	.	.	32dd#
16f	16a	16cc	32r
.	.	.	32ee
16f	16a	16cc	32r
.	.	.	32ff
16f	16a	16cc	32r
.	.	.	32gg
=63	=63	=63	=63
16f	16a	16cc	32r
.	.	.	32aa
16f	16a	16cc	32r
.	.	.	32gg
16f	16a	16cc	32r
.	.	.	32ff
16f	16a	16cc	32r
.	.	.	32ee
16f#	16a	16cc	32r
.	.	.	32ee-
16f#	16a	16cc	32r
.	.	.	32dd
16f#	16a	16cc	32r
.	.	.	32ee-
16f#	16a	16cc	32r
.	.	.	32dd
=64	=64	=64	=64
16f#	16a	16cc	32r
.	.	.	32aa
16f#	16a	16cc	32r
.	.	.	32ee-
16f#	16a	16cc	32r
.	.	.	32dd
16f#	16a	16cc	32r
.	.	.	32aa
16f#	16a	16cc	32r
.	.	.	32ee-
16f#	16a	16cc	32r
.	.	.	32dd
16f#	16a	16cc	32r
.	.	.	32ee-
16f#	16a	16cc	32r
.	.	.	32dd
=65	=65	=65	=65
16GG 16G	16B	32r	32r
.	.	32ddd	32fff
16A	16c	32r	32r
.	.	32ccc	32eee
16B	16d	32r	32r
.	.	32bb	32ddd
16c	16e	32r	32r
.	.	32aa	32ccc
16d	16f	32r	32r
.	.	32gg	32bb
16e	16g	32r	32r
.	.	32ff	32aa
16f	16a	32r	32r
.	.	32ee	32gg
16g	16b	32r	32r
.	.	32dd	32ff
=66	=66	=66	=66
32r	32r	16cc	16ee
32c	32e	.	.
32r	32r	16cc	16ee
32B	32d	.	.
32r	32r	16cc	16ee
32A	32c	.	.
32r	32r	16cc	16ee
32G	32B	.	.
32r	32r	16cc	16ee
32F	32A	.	.
32r	32r	16cc	16ee
32E	32G	.	.
32r	32r	16cc	16ee
32D	32F	.	.
32r	32r	16cc	16ee
32C	32E	.	.
=67	=67	=67	=67
8FF	8F	8aa 8cc 8f	8cc 8aa 8f
4r	4r	4r	3r
16.r	16.r	16.r	.
.	.	.	96r
32f	32b	32gg	32dd
=68	=68	=68	=68
8e	8g	8cc	8gg
4r	4r	4r	3r
16.r	16.r	16.r	.
.	.	.	96r
32e	32f	32a	32cc
=69	=69	=69	=69
8d	8f	8a	8ff
16.r	16.r	16.r	16.r
32d	32f	32a	32ff
8c	8e-	8a-	8aa-
16.r	16.r	16.r	16.r
32c	32e-	32a-	32aa-
=70	=70	=70	=70
8B	8g	8d	8gg
16.r	16.r	16.r	16.r
32G	32b	32d	32ff
16A	16cc	16c	16ee
16r	16r	16r	16r
16F	16a	16f	16dd
16r	16r	16r	16r
=71	=71	=71	=71
8G	8g	8e	8cc
8r	8r	8r	8r
8G	8f	8d	8b
8r	8r	8r	8r
=72	=72	=72	=72
4CC	4G	4c	4e
4GG	4F	4B	4d
=73	=73	=73	=73
8.AA	4E	4.A	8.c
16GG	.	.	16c#
8FF	8F	.	8d
8EE	8G	8c#	8e
=74	=74	=74	=74
8DD	8A	8d	8f
8CC 8C	16.E	8e	8a
.	32F	.	.
8BB	8G	8d	8g
8BB	8G	8d	8f
=75	=75	=75	=75
8C	2G	4c	4e
8E	.	.	.
4G	.	4B	8.d
.	.	.	16d#
=76	=76	=76	=76
4CC	4G	4c	4e
4GG#	4F	4B	4d
=77	=77	=77	=77
4AA	4E	4A	4c
4GG	8F	4B-	8d
.	8G	.	8e
=78	=78	=78	=78
4FF	4A	8c	8f
.	.	8f	24a
.	.	.	24f
.	.	.	24d
4GG	8G	8e	8c
.	8B	8d	24B
.	.	.	24d
.	.	.	24f
=79	=79	=79	=79
8C	16c	16c	8e
.	16c	16e	.
32r	16c	16e	4r
32E	.	.	.
32BB	16c	16e	.
32C	.	.	.
32FF#	16c	16e	.
32GG	.	.	.
32DD#	16c	16e	.
32EE	.	.	.
32CC	16c	16e	32r
32EE	.	.	32g
32GG	16c	16e	32e
32C	.	.	32c
=80	=80	=80	=80
8D	16c	16f	8G
.	16B	16f	.
32r	16B	16f	4r
32F	.	.	.
32C#	16d	16f	.
32D	.	.	.
32AA#	16d	16f	.
32BB	.	.	.
32FF#	16d	16f	.
32GG	.	.	.
32DD	16d	16f	32r
32GG	.	.	32dd
32BB	16d	16f	32b
32D	.	.	32f
=81	=81	=81	=81
8E	16d	16g	8e
.	16c#	16g	.
32r	16c#	16g	4r
32B-	.	.	.
32G	16c#	16g	.
32B-	.	.	.
32E	16c#	16g	.
32G	.	.	.
32C#	16c#	16g	.
32E	.	.	.
32AA	16c#	16g	32r
32C#	.	.	32ee
32E	16c#	16g	32cc#
32A	.	.	32g
=82	=82	=82	=82
16D	16d	16f	32a
.	.	.	32aa
16D	16f	16a	32gg#
.	.	.	32aa
16D	16f	16a	32ee
.	.	.	32ff
16D	16f	16a	32cc#
.	.	.	32dd
16F	16f	16a	32g#
.	.	.	32a
16F	16f	16a	32cc#
.	.	.	32dd
16F	16f	16a	32ee
.	.	.	32ff
16F	16f	16a	32gg#
.	.	.	32aa
=83	=83	=83	=83
16F	16g	16d	32cc
.	.	.	32b
16F	16G	16d 16B	32r
.	.	.	32aa
16F	16G	16B 16d	32r
.	.	.	32gg
16F	16G	16d 16B	32r
.	.	.	32ff
16F	16G	16B 16d	32r
.	.	.	32ee
16F	16G	16B 16d	32r
.	.	.	32dd
16F	16G	16B 16d	32r
.	.	.	32cc
16F	16G	16B 16d	32r
.	.	.	32b
=84	=84	=84	=84
16E	16G	16e	32r
.	.	.	32dd
16E	16c	16g	32r
.	.	.	32cc
16E	16c	16g	32r
.	.	.	32aa
16E	16c	16g	32r
.	.	.	32gg
16E	16c	16g	32r
.	.	.	32ff
16E	16c	16g	32r
.	.	.	32ee
16E	16c	16g	32r
.	.	.	32dd
16E	16c	16g	32r
.	.	.	32cc
=85	=85	=85	=85
16BB	16G	16g	32r
.	.	.	32cc#
16BB	16G	16g	32r
.	.	.	32cc#
16BB	16G	16g	32r
.	.	.	32cc#
16BB	16G	16g	32r
.	.	.	32cc#
16BB	16f	16g	32r
.	.	.	32dd
16BB	16f	16g	32r
.	.	.	32dd
16BB	16f	16g	32r
.	.	.	32dd
16BB	16f	16g	32r
.	.	.	32dd
=86	=86	=86	=86
16C	16e-	16g	32r
.	.	.	32ee-
16C	16e-	16g	32r
.	.	.	32ee-
16C	16e-	16g	32r
.	.	.	32ee-
16C	16e-	16g	32r
.	.	.	32ee-
16BB-	16d-	16g	32r
.	.	.	16ee-
16BB-	16d-	16g	.
.	.	.	32ee-
16BB-	16d-	16g	32r
.	.	.	16ee-
16BB-	16d-	16g	.
.	.	.	32ee-
=87	=87	=87	=87
16AA-	16c	16a-	32r
.	.	.	16ee- 16e-
16AA-	16c	16a-	.
.	.	.	16ee- 16e-
16AA-	16c	16a-	.
.	.	.	16ee- 16e-
16AA-	16c	16a-	.
.	.	.	32ee- 32e-
16AA-	16f#	16c	32r
.	.	.	16ee- 16e-
16AA-	16f#	16c	.
.	.	.	16ee- 16e-
16AA-	16f#	16c	.
.	.	.	16ee- 16e-
16AA-	16f#	16c	.
.	.	.	32ee- 32e-
=88	=88	=88	=88
16GG	16g	16e 16c	32r
.	.	.	16ee 16e
16GG	16cc	16e 16c	.
.	.	.	16ee 16e
16GG	16cc	16e 16c	.
.	.	.	16ee 16e
16GG	16cc	16e 16c	.
.	.	.	32e 32ee
8GG	8cc	8e 8c	32r
.	.	.	32cc
.	.	.	32g
.	.	.	32ee
8r	8r	8r	32cc
.	.	.	32gg
.	.	.	32ee
.	.	.	32ccc
=89	=89	=89	=89
2r	2r	2r	32gg
.	.	.	32eee
.	.	.	32ccc
.	.	.	32eee
.	.	.	32ccc
.	.	.	32ggg
.	.	.	32eee
.	.	.	32ggg
.	.	.	32eee
.	.	.	32ggg
.	.	.	32cccc
.	.	.	32ggg
.	.	.	32cccc
.	.	.	32ggg
.	.	.	32cccc
.	.	.	32ggg
=90	=90	=90	=90
8GG	8e	8cc	8eeee
8r	8r	8r	8r
8GG	8d	8f	8b
8r	8r	8r	8r
=91	=91	=91	=91
16CC	32r	16e 16G	8cc
.	32g	.	.
16C	32d#	16G 16e	.
.	32e	.	.
16C	32B	16e 16G	12..r
.	32c	.	.
16C	32F#	16e 16G	.
.	32G	.	.
16CC	16B	16G 16f	.
.	.	.	96r
.	.	.	32aa
16C	16B	16G 16f	32ee
.	.	.	32ff
16C	16B	16f 16G	32cc#
.	.	.	32dd
16C	16d	16f 16G	32g
.	.	.	32b
=92	=92	=92	=92
16CC	32e	16G 16e	8cc
.	32g	.	.
16C	32d#	16e 16G	.
.	32e	.	.
16C	32B	16G 16e	12..r
.	32c	.	.
16C	32F#	16G 16e	.
.	32G	.	.
16CC	16B	16G 16f	.
.	.	.	96r
.	.	.	32aa
16C	16B	16f 16G	32ee
.	.	.	32ff
16C	16B	16f 16G	32cc#
.	.	.	32dd
16C	16d	16f 16G	32g
.	.	.	32b
=93	=93	=93	=93
32r	8c	8G 8e	8cc
32E	.	.	.
32BB	.	.	.
32C	.	.	.
32FF#	8r	8r	8r
32GG	.	.	.
32DD#	.	.	.
32EE	.	.	.
32CC	8c	8e 8G	8cc
32E	.	.	.
32BB	.	.	.
32C	.	.	.
32FF#	8r	8r	8r
32GG	.	.	.
32DD#	.	.	.
32EE	.	.	.
=94	=94	=94	=94
32CC	8c	8e	8cc
32EE	.	.	.
32GG	.	.	.
32C	.	.	.
32E	8C	8c	8e 8G
32C	.	.	.
32GG	.	.	.
32EE	.	.	.
32CC	8E	8c	8G 8e
32EE	.	.	.
32GG	.	.	.
32C	.	.	.
32E	8G	8c	8e 8G
32C	.	.	.
32GG	.	.	.
32EE	.	.	.
=95	=95	=95	=95
2CC	2E	2c	2e 2G
==	==	==	==
*-	*-	*-	*-
!!!RWG1: This file contains only pitch and duration data.
!!!RWG2: Transposing instruments are not transposed.
!!!RWG3: Spines may have incompatible meters.
!!!RWG4: Durations of rests and tied notes may be interpreted.
!!!RWG: Key is interpreted using the Humdrum key tool.
!!!GTL: 6 Quartetti ("Erdödy")
!!!AFT: stage1
!!!END: 1997/04/15
!!!KEY: 1603828730
!!!EMD: Converted from MuseData to Humdrum Dec 16, 2000, by Andreas Kornstaedt using muse2kern.
!!!EMD: Manual editing by Craig Sapp, Nov 2001
